img/sp-1.svg

<svg width="164" height="126" viewBox="0 0 164 126" fill="none" xmlns="http://www.w3.org/2000/svg">
<path d="M139.851 106.455H100.082V114.554H82.3614H64.6407V106.455H24.8721H21.5752H12.9209H12.5088C12.5088 106.455 12.5088 106.455 12.3027 106.455H2V115.385C2 117.877 3.03024 119.953 4.47262 121.615C6.12106 123.276 8.18161 124.314 10.6543 124.314H153.45C155.923 124.314 157.984 123.276 159.632 121.615C161.28 119.953 162.311 117.877 162.311 115.385V106.455H154.687H151.39H142.942H139.851V106.455Z" stroke="#9EA3B2" stroke-width="3" stroke-miterlimit="2.6131" stroke-linecap="round" stroke-linejoin="round"/>
<path d="M60.7257 27.7506H16.0117C14.3633 27.7506 12.7148 29.2043 12.7148 31.0733V106.663" stroke="#9EA3B2" stroke-width="3" stroke-miterlimit="2.6131" stroke-linecap="round" stroke-linejoin="round"/>
<path d="M151.594 106.456V30.8656C151.594 28.9966 150.151 27.543 148.297 27.543H103.789" stroke="#9EA3B2" stroke-width="3" stroke-miterlimit="2.6131" stroke-linecap="round" stroke-linejoin="round"/>
<path d="M99.4629 39.7947H139.85V106.455" stroke="#9EA3B2" stroke-width="3" stroke-miterlimit="2.6131" stroke-linecap="round" stroke-linejoin="round"/>
<path d="M24.666 106.455V39.7947H64.8467" stroke="#9EA3B2" stroke-width="3" stroke-miterlimit="2.6131" stroke-linecap="round" stroke-linejoin="round"/>
<path d="M103.79 27.7504C103.996 23.1818 103.584 16.5365 103.584 6.36095C94.9295 7.60694 87.5115 6.56862 82.1541 2C75.7664 6.36096 68.5545 7.81461 60.7244 6.36095C60.7244 16.3289 60.5183 22.9741 60.7244 27.7504C60.9304 33.3573 61.9607 36.4723 64.8455 39.7949C67.9363 43.5329 73.2937 47.6862 82.1541 55.7851C91.0144 47.6862 96.3719 43.3252 99.4627 39.7949C102.553 36.2647 103.584 33.1497 103.79 27.7504Z" stroke="#A6ABB8" stroke-width="3" stroke-miterlimit="2.6131" stroke-linecap="round" stroke-linejoin="round"/>
<path d="M82.155 46.2325C98.4334 31.4883 96.5789 35.4339 96.3728 14.0445C91.4275 14.2521 86.2761 13.4215 81.949 10.7218C77.6218 13.2138 72.8826 14.2521 67.9373 14.0445C67.9373 17.9901 67.7312 22.1434 67.9373 26.089" stroke="#FE1845" stroke-width="3" stroke-miterlimit="2.6131" stroke-linecap="round" stroke-linejoin="round"/>
<path d="M81.7676 60.1989V90.7256" stroke="#FE1845" stroke-width="3" stroke-miterlimit="2.6131" stroke-linecap="round" stroke-linejoin="round"/>
<path d="M73.3184 80.1346L81.7666 91.9714L82.1787 91.1408L90.0088 80.1346" stroke="#FE1845" stroke-width="3" stroke-miterlimit="2.6131" stroke-linecap="round" stroke-linejoin="round"/>
<path d="M75.3574 26.5043L77.418 31.9036L89.7813 26.2966" stroke="#FE1845" stroke-width="3" stroke-miterlimit="2.6131" stroke-linecap="round" stroke-linejoin="round"/>
</svg>

<svg width="164" height="126" fill="none" xmlns="http://www.w3.org/2000/svg"><path d="M139.851 106.455h-39.769v8.099H64.641v-8.099H12.509 2v8.93c0 2.492 1.03 4.568 2.473 6.23 1.648 1.661 3.709 2.699 6.181 2.699H153.45c2.473 0 4.534-1.038 6.182-2.699 1.648-1.662 2.679-3.738 2.679-6.23v-8.93h-22.46v0z" stroke="#9EA3B2" stroke-width="3" stroke-miterlimit="2.613" stroke-linecap="round" stroke-linejoin="round"/><path d="M60.726 27.75H16.012c-1.649 0-3.297 1.454-3.297 3.323v75.59M151.594 106.456v-75.59c0-1.87-1.443-3.323-3.297-3.323h-44.508" stroke="#9EA3B2" stroke-width="3" stroke-miterlimit="2.613" stroke-linecap="round" stroke-linejoin="round"/><path d="M99.463 39.795h40.387v66.66M24.666 106.455v-66.66h40.18" stroke="#9EA3B2" stroke-width="3" stroke-miterlimit="2.613" stroke-linecap="round" stroke-linejoin="round"/><path d="M103.79 27.75c.206-4.568-.206-11.213-.206-21.39C94.93 7.608 87.511 6.57 82.154 2c-6.388 4.361-13.6 5.815-21.43 4.36 0 9.969-.206 16.614 0 21.39.206 5.607 1.237 8.722 4.122 12.045 3.09 3.738 8.448 7.891 17.308 15.99 8.86-8.099 14.218-12.46 17.309-15.99 3.09-3.53 4.121-6.645 4.327-12.045z" stroke="#A6ABB8" stroke-width="3" stroke-miterlimit="2.613" stroke-linecap="round" stroke-linejoin="round"/><path d="M82.155 46.233c16.278-14.745 14.424-10.8 14.218-32.188-4.946.207-10.097-.623-14.424-3.323-4.327 2.492-9.066 3.53-14.012 3.322 0 3.946-.206 8.1 0 12.045M81.768 60.199v30.527M73.318 80.135l8.449 11.836.412-.83 7.83-11.006" stroke="#FE1845" stroke-width="3" stroke-miterlimit="2.613" stroke-linecap="round" stroke-linejoin="round"/><path d="M75.357 26.504l2.061 5.4 12.363-5.607" stroke="#FE1845" stroke-width="3" stroke-miterlimit="2.613" stroke-linecap="round" stroke-linejoin="round"/></svg>
